public/mouth-shapes/mouth-C.svg

<?xml version="1.0" encoding="UTF-8" standalone="no"?>
<svg
   xmlns:dc="http://purl.org/dc/elements/1.1/"
   xmlns:cc="http://creativecommons.org/ns#"
   xmlns:rdf="http://www.w3.org/1999/02/22-rdf-syntax-ns#"
   xmlns:svg="http://www.w3.org/2000/svg"
   xmlns="http://www.w3.org/2000/svg"
   xmlns:sodipodi="http://sodipodi.sourceforge.net/DTD/sodipodi-0.dtd"
   xmlns:inkscape="http://www.inkscape.org/namespaces/inkscape"
   inkscape:version="1.0beta1 (32d4812, 2019-09-19)"
   sodipodi:docname="mouth-C.svg"
   stroke-linejoin="round"
   stroke-linecap="round"
   fill="none"
   stroke="black"
   xml:space="preserve"
   enable-background="new 0 0 1657.807129 1657.807129"
   viewBox="-6e-06 -2e-06 1024 370.87212"
   height="768"
   width="1024"
   y="0px"
   x="0px"
   id="Contours"
   version="1.1">
  <metadata
     id="metadata155">
    <rdf:RDF>
      <cc:Work
         rdf:about="">
        <dc:format>image/svg+xml</dc:format>
        <dc:type
           rdf:resource="http://purl.org/dc/dcmitype/StillImage" />
      </cc:Work>
    </rdf:RDF>
  </metadata>
  <defs
     id="defs153" />
  <sodipodi:namedview
     inkscape:current-layer="Contours"
     inkscape:window-maximized="1"
     inkscape:window-y="23"
     inkscape:window-x="0"
     inkscape:cy="847.21081"
     inkscape:cx="-21.301901"
     inkscape:zoom="0.16407216"
     showgrid="false"
     id="namedview151"
     inkscape:window-height="755"
     inkscape:window-width="1280"
     inkscape:pageshadow="2"
     inkscape:pageopacity="0"
     guidetolerance="10"
     gridtolerance="10"
     objecttolerance="10"
     borderopacity="1"
     inkscape:document-rotation="0"
     bordercolor="#666666"
     pagecolor="#ffffff" />
  <g
     transform="matrix(0.49752777,0,0,0.49752777,91.4534,-7.6209)"
     id="g1252"
     style="opacity:1;stop-opacity:1">
    <path
       inkscape:connector-curvature="0"
       class="selected"
       fill="#000000"
       opacity="1.000000"
       stroke="none"
       d="m 29.439314,195.49809 c 2.248917,4.45516 -3.466568,9.60028 -8.371716,8.68074 -4.905148,-0.91954 -8.287956,-5.37336 -10.729073,-9.72618 C -2.435605,171.6748 -2.41352,143.3833 5.187726,118.39871 12.788972,93.414113 27.284424,71.140678 42.541468,49.945595 c 2.175537,-3.022255 4.548862,-6.174094 7.999668,-7.57371 3.450806,-1.399615 8.240231,-0.17326 9.329988,3.387557 0.499181,1.631097 0.147836,3.391037 -0.281009,5.04202 -5.027979,19.356901 -19.780573,34.482731 -29.169403,52.141158 -15.051313,28.30836 -15.429068,63.93432 -0.981401,92.55547 z"
       id="path142" />
    <path
       inkscape:connector-curvature="0"
       class="selected"
       fill="#000000"
       opacity="1.000000"
       stroke="none"
       d="m 1148.0951,727.64085 c 0.7303,0.42749 1.4606,0.85498 2.1908,1.28247 -3.2801,2.59365 -7.4711,4.01099 -11.6521,3.94061 2.4415,-2.50904 5.8275,-4.07623 9.3203,-4.31379 z"
       id="path144" />
    <path
       inkscape:connector-curvature="0"
       class="selected"
       fill="#000000"
       opacity="1.000000"
       stroke="none"
       d="m 478.58443,474.10413 c -5.2888,2.21555 -11.31411,2.62788 -16.85542,1.15345 5.05639,-2.8984 11.45132,-3.33602 16.85542,-1.15346 z"
       id="path146" />
    <path
       inkscape:connector-curvature="0"
       class="selected"
       fill="#000000"
       opacity="1.000000"
       stroke="none"
       d="m 1612.2828,107.90644 c -17.7257,-20.564934 -35.4515,-41.129864 -53.1772,-61.694793 62.7636,24.575564 104.8927,93.716793 97.9556,160.762323 -18.0222,-25.41728 -30.8754,-54.48346 -37.551,-84.91825 -25.3417,157.02036 -105.65,300.98917 -206.3346,424.11601 -27.2342,33.30471 -56.2379,65.53162 -90.2772,91.84204 -51.3041,39.65521 -112.2125,64.5363 -172.2947,88.92429 -64.5348,26.19532 -129.6578,52.53732 -198.21682,64.80926 -77.94129,13.95135 -158.0179,9.28549 -236.67489,0.19917 C 598.32725,778.38641 478.92087,753.84664 379.43692,690.08149 285.51187,629.87938 215.56158,538.52112 159.2367,442.22098 103.29018,346.56771 58.828096,244.20429 27.108826,138.0278 23.919249,127.35107 34.626051,117.99438 44.126477,112.17134 260.29309,-20.322456 535.079,-22.543153 781.04952,38.947594 c 30.64991,7.662244 63.10069,16.224055 93.25578,6.800772 240.7641,-75.23752 507.0147,-39.25321 737.9775,62.158064 m -46.1434,156.01208 c 12.2104,-40.25183 24.4207,-80.50366 36.631,-120.75549 1.3252,-4.3687 2.6569,-9.03448 1.4026,-13.42406 -1.8564,-6.49608 -8.5909,-10.12062 -14.7188,-12.96565 C 1378.7565,18.951329 1133.911,-3.306122 909.0279,54.919782 872.52818,64.370154 833.76923,75.850679 797.97335,64.010286 579.54246,-8.241419 335.66387,-0.681746 122.12731,84.959935 89.842375,97.908234 53.395212,119.381 52.225262,154.14602 c -0.4346,12.91415 4.387879,25.35768 9.132652,37.37647 15.283505,38.71402 30.567011,77.42803 45.850516,116.14205 2.40579,6.09399 5.91585,13.09937 12.40853,13.97667 185.65071,25.08532 372.11994,44.11256 559.0111,57.04125 51.10848,3.53556 102.29248,6.61654 153.52268,6.40678 54.07232,-0.2214 108.06392,-4.10847 161.92633,-8.8735 178.67753,-15.807 356.49713,-41.30679 532.41613,-76.34983 9.5155,-1.89548 19.5327,-4.06815 26.6937,-10.61471 7.0898,-6.48145 10.1641,-16.14039 12.9525,-25.33269 M 1337.7,604.51679 c 2.1328,-1.65948 4.3644,-3.48906 5.1837,-6.06424 0.944,-2.96701 -0.2161,-6.15036 -1.3617,-9.04552 -9.3228,-23.56161 -18.6456,-47.12323 -27.9685,-70.68484 -1.527,-3.85928 -3.1596,-7.87188 -6.2822,-10.6059 -4.0501,-3.54597 -9.778,-4.2569 -15.1331,-4.80438 -160.9638,-16.45614 -322.59002,-26.43233 -484.35579,-29.89629 -50.32821,-1.0777 -100.66755,-1.52535 -151.00531,-1.97297 -95.26571,-0.84714 -190.73981,-1.68575 -285.57296,7.42176 -21.54536,2.06915 -43.55906,4.8009 -62.87397,14.56913 -19.31491,9.76823 -35.69018,28.01206 -37.42456,49.58695 -2.29026,28.48986 20.11388,52.37441 41.34015,71.51502 46.18561,41.6475 95.73562,81.0259 153.12876,104.97695 32.05336,13.37636 65.96985,21.68816 99.92463,28.99688 82.88738,17.84138 166.99373,30.01735 251.53783,36.41482 34.32794,2.5976 68.97444,4.23427 103.07419,-0.49453 35.28654,-4.89339 69.24863,-16.49589 102.89453,-28.20225 C 1133.3634,717.7612 1245.3125,676.40015 1337.7,604.51679 M 901.06303,398.74731 c -76.87827,3.04746 -153.82288,-1.94911 -230.59928,-6.94312 -183.76466,-11.95321 -368.10463,-23.97854 -548.92798,-58.83888 36.3565,78.08034 81.25814,152.17823 133.64499,220.54453 -1.26857,-32.21931 22.92714,-61.11305 51.94418,-75.17382 29.01703,-14.06076 62.16533,-16.26756 94.37045,-17.85626 299.69882,-14.78429 599.96821,3.15338 899.34941,23.37294 6.7839,0.45817 15.4044,-0.19074 17.7716,-6.56471 24.6887,31.16971 38.901,70.493 39.8449,110.24461 74.6684,-81.65634 137.4389,-174.17489 185.7192,-273.73458 -179.9557,34.70288 -361.5976,60.66079 -544.0703,77.75152 -32.96261,3.08734 -65.96625,5.88643 -99.04717,7.19777 m 428.44917,124.43874 c 0.7615,3.37138 2.3967,6.54151 4.7024,9.11633 1.4494,-3.51218 -0.6785,-8.04416 -4.3066,-9.17231 z"
       id="path148" />
  </g>
</svg>

<?xml version="1.0" encoding="utf-8"?><!DOCTYPE svg PUBLIC "-//W3C//DTD SVG 1.1//EN" "http://www.w3.org/Graphics/SVG/1.1/DTD/svg11.dtd"><svg version="1.1" id="Contours" xmlns="http://www.w3.org/2000/svg" xmlns:xlink="http://www.w3.org/1999/xlink" x="0px" y="0px" width="1657.807129px" height="1657.807129px" viewBox="-0.000006 -0.000002 1657.807129 800.565674" enable-background="new 0 0 1657.807129 1657.807129" xml:space="preserve" stroke="black" fill="none" stroke-linecap='round' stroke-linejoin='round'><path class="selected"  fill="#000000" opacity="1.000000" stroke="none" 
 	d="
M29.439314 195.498093 C31.688231 199.953248 25.972746 205.098373 21.067598 204.178831 C16.162450 203.259288 12.779642 198.805467 10.338525 194.452654 C-2.435605 171.674802 -2.413520 143.383302 5.187726 118.398708 C12.788972 93.414113 27.284424 71.140678 42.541468 49.945595 C44.717005 46.923340 47.090330 43.771501 50.541136 42.371885 C53.991942 40.972270 58.781367 42.198625 59.871124 45.759442 C60.370305 47.390539 60.018960 49.150479 59.590115 50.801462 C54.562136 70.158363 39.809542 85.284193 30.420712 102.942620 C15.369399 131.250983 14.991644 166.876940 29.439311 195.498093 z"/><path class="selected"  fill="#000000" opacity="1.000000" stroke="none" 
 	d="
M1148.095143 727.640852 C1148.825400 728.068341 1149.555656 728.495829 1150.285913 728.923318 C1147.005827 731.516967 1142.814833 732.934314 1138.633798 732.863930 C1141.075259 730.354894 1144.461320 728.787699 1147.954105 728.550143 z"/><path class="selected"  fill="#000000" opacity="1.000000" stroke="none" 
 	d="
M478.584427 474.104126 C473.295632 476.319683 467.270321 476.732008 461.729011 475.257579 C466.785404 472.359180 473.180334 471.921562 478.584427 474.104125 z"/><path class="selected"  fill="#000000" opacity="1.000000" stroke="none" 
 	d="
M1612.282810 107.906436 C1594.557079 87.341506 1576.831347 66.776576 1559.105616 46.211647 C1621.869203 70.787211 1663.998308 139.928440 1657.061248 206.973973 C1639.038967 181.556694 1626.185829 152.490512 1619.510186 122.055721 C1594.168520 279.076080 1513.860152 423.044888 1413.175623 546.171729 C1385.941355 579.476443 1356.937690 611.703352 1322.898428 638.013769 C1271.594256 677.668980 1210.685948 702.550067 1150.603673 726.938056 C1086.068853 753.133377 1020.945882 779.475381 952.386875 791.747319 C874.445585 805.698669 794.368985 801.032814 715.711986 791.946493 C598.327253 778.386407 478.920871 753.846644 379.436921 690.081490 C285.511871 629.879380 215.561578 538.521119 159.236701 442.220976 C103.290178 346.567713 58.828096 244.204287 27.108826 138.027796 C23.919249 127.351067 34.626051 117.994380 44.126477 112.171337 C260.293087 -20.322456 535.078996 -22.543153 781.049516 38.947594 C811.699435 46.609838 844.150209 55.171649 874.305296 45.748366 C1115.069431 -29.489154 1381.320035 6.495156 1612.282810 107.906434 M1566.139441 263.918512 C1578.349760 223.666683 1590.560079 183.414854 1602.770399 143.163024 C1604.095637 138.794320 1605.427342 134.128539 1604.172964 129.738964 C1602.316625 123.242883 1595.582072 119.618340 1589.454196 116.773310 C1378.756461 18.951329 1133.911028 -3.306122 909.027904 54.919782 C872.528180 64.370154 833.769227 75.850679 797.973354 64.010286 C579.542459 -8.241419 335.663873 -0.681746 122.127305 84.959935 C89.842375 97.908234 53.395212 119.381000 52.225262 154.146016 C51.790662 167.060166 56.613141 179.503705 61.357914 191.522493 C76.641419 230.236507 91.924925 268.950521 107.208431 307.664536 C109.614215 313.758527 113.124280 320.763911 119.616958 321.641209 C305.267668 346.726530 491.736896 365.753769 678.628063 378.682459 C729.736545 382.218024 780.920541 385.298996 832.150739 385.089236 C886.223059 384.867839 940.214656 380.980772 994.077068 376.215744 C1172.754573 360.408741 1350.574175 334.908954 1526.493182 299.865908 C1536.008655 297.970427 1546.025933 295.797764 1553.186913 289.251204 C1560.276671 282.769755 1563.350975 273.110808 1566.139441 263.918512 M1337.699957 604.516794 C1339.832792 602.857312 1342.064407 601.027732 1342.883744 598.452551 C1343.827746 595.485543 1342.667561 592.302195 1341.522007 589.407030 C1332.199182 565.845417 1322.876357 542.283804 1313.553532 518.722192 C1312.026495 514.862906 1310.393922 510.850312 1307.271256 508.116289 C1303.221218 504.570319 1297.493335 503.859390 1292.138247 503.311907 C1131.174396 486.855768 969.548183 476.879580 807.782407 473.415620 C757.454196 472.337921 707.114861 471.890273 656.777103 471.442649 C561.511388 470.595506 466.037293 469.756899 371.204138 478.864406 C349.658777 480.933559 327.645077 483.665311 308.330168 493.433538 C289.015259 503.201765 272.639985 521.445596 270.905610 543.020487 C268.615353 571.510346 291.019495 595.394904 312.245758 614.535512 C358.431372 656.183012 407.981385 695.561410 465.374524 719.512456 C497.427877 732.888820 531.344370 741.200624 565.299153 748.509339 C648.186533 766.350721 732.292883 778.526692 816.836984 784.924159 C851.164917 787.521759 885.811421 789.158434 919.911170 784.429628 C955.197705 779.536243 989.159795 767.933743 1022.805685 756.227380 C1133.363411 717.761202 1245.312511 676.400154 1337.699957 604.516794 M901.063026 398.747306 C824.184756 401.794771 747.240148 396.798203 670.463750 391.804186 C486.699093 379.850982 302.359124 367.825654 121.535771 332.965313 C157.892267 411.045649 202.793912 485.143541 255.180765 553.509843 C253.912187 521.290527 278.107900 492.396790 307.124938 478.336023 C336.141975 464.275256 369.290272 462.068456 401.495391 460.479761 C701.194206 445.695465 1001.463582 463.633144 1300.844818 483.852703 C1307.628731 484.310874 1316.249178 483.661958 1318.616442 477.287992 C1343.305110 508.457698 1357.517429 547.780986 1358.461319 587.532604 C1433.129668 505.876260 1495.900214 413.357715 1544.180513 313.798017 C1364.224758 348.500896 1182.582890 374.458814 1000.110232 391.549541 C967.147593 394.636883 934.143952 397.435974 901.063026 398.747306 M1329.512184 523.186054 C1330.273671 526.557426 1331.908904 529.727556 1334.214615 532.302378 C1335.663995 528.790196 1333.536109 524.258222 1329.907969 523.130074 z"/></svg>
